X:308
%%etbk:tnset id:95,pos:4,rep:3x,ant:
%%etbk:tnset id:260,pos:10,rep:1x+A-Stop,ant:
%%etbk:wsite http://www.thesession.org/tunes/display/62
%%etbk:pldat 2016-05-04T16:00,2016-03-10T18:16,2016-03-08T15:22,2016-03-05T13:20,2016-02-16T17:11,2015-10-29T18:14,2015-10-27T16:01,2015-10-24T15:36,2015-10-20T16:19,2015-10-07T16:49,2015-10-01T18:48,2015-06-21T15:20,2015-03-13T18:55,2015-03-10T15:57,2015-03-06T15:53,2015-03-04T15:12,2015-03-03T18:11,2015-02-14T14:25,2015-01-27T15:56,2014-11-06T17:56,2014-11-04T15:37,2014-11-01T13:43,2014-10-20T18:17,2014-08-21T18:54,2014-08-20T18:30,2014-07-29T17:51,2014-06-23T18:00,2014-06-22T16:30,2014-06-10T18:04,2014-06-09T15:01,2014-03-06T17:58,2014-03-04T18:02,2014-03-01T17:16,2014-02-24T17:56,2014-02-20T18:51,2014-02-14T15:25,2013-10-30T16:32,2013-10-29T16:10,2013-10-28T18:50,2013-10-27T13:56,2013-10-23T18:03,2013-10-18T15:36,2013-10-17T19:04,2013-10-16T15:44,2013-10-15T18:11,2013-10-14T18:33,2013-10-13T14:48,2013-10-08T15:50
T: Lark In The Morning, The
Z: Piano Box Version by Martin Fleischmann
H: Created 2013-02-19 /  Last Modified 2013-02-19
M: 6/8
L: 1/8
R: jig
K: Dmaj
|: "D"!1!A!2!F!1!A !1!A!2!F!1!A | "G"!2!B!1!GB !2!B!4!dB | "D"!1!A!2!F!1!A !1!A!2!F!1!A | "A"!3!fe!1!d !2!B!4!dB |
"D"!1!A!2!F!1!A !1!A!2!F!1!A | "G"!2!B!1!GB !2!B!1!A!2!B | "A"!1!def !5!afe |1 !1!d!2!BB !2!B!4!dB :|12!1!d!2!BB {d}!2!BAB||
|: "D"!1!def !4!a!3!a!4!a | !5!b!4!a!3!f !4!a!3!f!2!e | !1!def !5!afe | "A"!1!d!2!BB {d}BAB |
"D"!1!def !4!a!3!a!4!a | !5!b!4!a!3!f !4!a2!3!f | "G"!4!g!3!g!4!g !3!faf | "A"!2!e!1!d!2!B {d}BAB :|
|: "D"!1!d2!3!f {g}fef | !3!fef fef | !1!d2!3!f {g}fef | "A"!2!e!1!d!2!B {d}BA!2!B |
"D"!1!d2!3!f {g}fef | !3!fef fef | "G"!4!g!3!g!4!g !3!faf | "A"!2!e!1!d!2!B {d}BAB:|
|: "D"!1!A!3!d!1!d !3!f!1!dd | {g}!2!ede !3!f!1!d!2!B | !1!A!3!d!1!d !3!f!1!dd | "A"!2!e2e {g}!2!e!1!d!2!B |
"D"!1!A!3!d!1!d !3!f!1!dd | {g}!2!ede !3!f2f | "G"!4!g2g !3!faf | "A"!2!e!1!d!2!B {d}BAB:|


